icons/ngrok-filled.svg

<svg width="256" height="256" viewBox="0 0 256 256" fill="none" xmlns="http://www.w3.org/2000/svg">
<rect width="256" height="256" rx="50" fill="#022384"/>
<g clip-path="url(#clip0_10_2)">
<path d="M94.1774 115.629C91.2794 112.378 87.6947 110.742 83.4349 110.742C80.8092 110.742 78.3905 111.254 76.1677 112.289C73.9451 113.325 72.0277 114.727 70.4041 116.52C68.7918 118.323 67.5171 120.416 66.5802 122.843C65.643 125.259 65.1746 127.875 65.1746 130.703C65.1746 133.475 65.6105 136.002 66.471 138.284C67.3428 140.555 68.552 142.503 70.1209 144.128C71.6898 145.754 73.5529 147.023 75.7101 147.936C77.8674 148.849 80.2317 149.305 82.8029 149.305C83.9687 149.305 85.0472 149.216 86.0279 149.049C87.0083 148.882 87.9455 148.604 88.8387 148.225C89.7322 147.836 90.6037 147.346 91.4754 146.756C92.3362 146.155 93.2404 145.398 94.1774 144.496V154.148H94.1664V155.083H82.2691L73.3241 165.37V167.14H106.892V162.965V111.755H94.1774V115.629ZM94.1447 133.319C93.698 134.343 93.1095 135.245 92.3907 136.013C91.6605 136.781 90.7998 137.371 89.7976 137.805C88.7953 138.239 87.7274 138.451 86.6054 138.451C85.4287 138.451 84.3391 138.239 83.3367 137.805C82.3343 137.371 81.4628 136.781 80.7327 136.013C80.0028 135.245 79.4363 134.343 79.0115 133.319C78.5866 132.294 78.3795 131.17 78.3795 129.979C78.3795 128.832 78.5973 127.752 79.0442 126.75C79.4908 125.749 80.079 124.88 80.8419 124.135C81.5935 123.389 82.4542 122.799 83.4349 122.342C84.4153 121.886 85.4721 121.663 86.5944 121.663C87.673 121.663 88.7081 121.875 89.7212 122.309C90.7236 122.732 91.6061 123.333 92.3579 124.101C93.1095 124.869 93.698 125.749 94.1556 126.75C94.6023 127.752 94.8203 128.855 94.8203 130.057C94.8093 131.204 94.5915 132.294 94.1447 133.319Z" fill="white"/>
<path d="M58.7032 116.23C58.0278 115.418 57.2652 114.716 56.4479 114.093C55.718 113.548 54.9444 113.069 54.1056 112.679C53.7025 112.49 53.2776 112.334 52.8307 112.189C52.188 111.978 51.4907 111.833 50.7715 111.711H41.7069L35.7146 118.691V117.878V111.855H23V148.682H35.7146V132.885V123.834H37.4796H41.0205H47.5031H47.6557L48.6471 123.812V148.671H61.3616V125.637C61.3616 123.678 61.1765 121.93 60.8061 120.394C60.4357 118.869 59.7383 117.488 58.7032 116.23Z" fill="white"/>
<path d="M144.283 111.755H134.859C134.859 111.755 131.493 111.755 130.414 111.755L124.901 118.1V111.755H112.175V148.581H124.923L124.934 123.934H129.118H134.184L144.283 112.267V111.755Z" fill="white"/>
<path d="M212.989 128.765L230.378 112.378V111.755H213.621L200.286 125.036V89H187.571V148.57H200.286V133.575L214.264 148.57H231.372V147.869L212.989 128.765Z" fill="white"/>
<path d="M177.634 115.952C175.694 114.204 173.396 112.846 170.748 111.866C168.101 110.887 165.235 110.397 162.141 110.397C159.003 110.397 156.105 110.898 153.468 111.9C150.821 112.902 148.544 114.282 146.615 116.019C144.698 117.766 143.194 119.826 142.116 122.197C141.037 124.568 140.503 127.118 140.503 129.845C140.503 132.862 141.037 135.601 142.116 138.061C143.194 140.522 144.676 142.637 146.583 144.407C148.478 146.177 150.734 147.546 153.359 148.504C155.985 149.461 158.84 149.94 161.934 149.94C165.072 149.94 167.981 149.461 170.683 148.504C173.374 147.546 175.684 146.199 177.601 144.44C179.519 142.692 181.033 140.61 182.134 138.195C183.234 135.779 183.79 133.118 183.79 130.191C183.79 127.274 183.245 124.602 182.177 122.186C181.088 119.781 179.573 117.7 177.634 115.952ZM169.691 133.385C169.245 134.41 168.656 135.311 167.937 136.08C167.207 136.848 166.347 137.438 165.344 137.872C164.331 138.306 163.274 138.518 162.152 138.518C161.03 138.518 159.962 138.306 158.949 137.872C157.946 137.438 157.075 136.848 156.356 136.08C155.626 135.311 155.048 134.41 154.602 133.385C154.155 132.361 153.937 131.226 153.937 129.979C153.937 128.832 154.155 127.752 154.602 126.75C155.048 125.749 155.626 124.869 156.356 124.101C157.086 123.333 157.946 122.732 158.949 122.308C159.962 121.874 161.019 121.663 162.152 121.663C163.274 121.663 164.342 121.874 165.344 122.308C166.347 122.732 167.218 123.333 167.937 124.101C168.667 124.869 169.245 125.771 169.691 126.795C170.138 127.819 170.356 128.91 170.356 130.057C170.356 131.248 170.138 132.361 169.691 133.385Z" fill="white"/>
</g>
<defs>
<clipPath id="clip0_10_2">
<rect width="210" height="78.1395" fill="white" transform="translate(23 89)"/>
</clipPath>
</defs>
</svg>

<svg xmlns="http://www.w3.org/2000/svg" width="256" height="256" fill="none"><rect width="256" height="256" fill="#022384" rx="50"/><g fill="#fff" clip-path="url(#clip0_10_2)"><path d="M94.177 115.629c-2.898-3.251-6.482-4.887-10.742-4.887-2.626 0-5.044.512-7.267 1.547a17.8 17.8 0 0 0-5.764 4.231c-1.612 1.803-2.887 3.896-3.824 6.323-.937 2.416-1.405 5.032-1.405 7.86 0 2.772.436 5.299 1.296 7.581.872 2.271 2.081 4.219 3.65 5.844q2.353 2.439 5.59 3.808 3.234 1.37 7.092 1.369c1.166 0 2.244-.089 3.225-.256s1.917-.445 2.81-.824a16.3 16.3 0 0 0 2.637-1.469c.861-.601 1.765-1.358 2.702-2.26v9.652h-.01v.935H82.268l-8.945 10.287v1.77h33.568v-55.385H94.177zm-.032 17.69a9.4 9.4 0 0 1-1.754 2.694 7.8 7.8 0 0 1-2.593 1.792 8 8 0 0 1-3.193.646c-1.176 0-2.266-.212-3.268-.646a7.8 7.8 0 0 1-2.604-1.792c-.73-.768-1.297-1.67-1.722-2.694-.424-1.025-.632-2.149-.632-3.34 0-1.147.218-2.227.665-3.229a8.4 8.4 0 0 1 1.798-2.615 9.1 9.1 0 0 1 2.593-1.793 7.4 7.4 0 0 1 3.16-.679c1.078 0 2.113.212 3.126.646a8 8 0 0 1 2.637 1.792 9.2 9.2 0 0 1 1.798 2.649c.446 1.002.664 2.105.664 3.307a8.3 8.3 0 0 1-.675 3.262M58.703 116.23a13.8 13.8 0 0 0-2.255-2.137 13.2 13.2 0 0 0-2.342-1.414 11 11 0 0 0-1.275-.49c-.643-.211-1.34-.356-2.06-.478h-9.064l-5.992 6.98v-6.836H23v36.827h12.715v-24.848h11.941l.991-.022v24.859h12.715v-23.034q0-2.939-.556-5.243c-.37-1.525-1.068-2.906-2.103-4.164m85.58-4.475h-13.869l-5.513 6.345v-6.345h-12.726v36.826h12.748l.011-24.647h9.25l10.099-11.667zm68.706 17.01 17.389-16.387v-.623h-16.757l-13.335 13.281V89h-12.715v59.57h12.715v-14.995l13.978 14.995h17.108v-.701zm-35.355-12.813c-1.94-1.748-4.238-3.106-6.886-4.086-2.647-.979-5.513-1.469-8.607-1.469-3.138 0-6.036.501-8.673 1.503-2.647 1.002-4.924 2.382-6.853 4.119a18.8 18.8 0 0 0-4.499 6.178c-1.079 2.371-1.613 4.921-1.613 7.648 0 3.017.534 5.756 1.613 8.216 1.078 2.461 2.56 4.576 4.467 6.346 1.895 1.77 4.151 3.139 6.776 4.097 2.626.957 5.481 1.436 8.575 1.436 3.138 0 6.047-.479 8.749-1.436 2.691-.958 5.001-2.305 6.918-4.064a19.05 19.05 0 0 0 4.533-6.245c1.1-2.416 1.656-5.077 1.656-8.004 0-2.917-.545-5.589-1.613-8.005a18.7 18.7 0 0 0-4.543-6.234m-7.943 17.433a9.4 9.4 0 0 1-1.754 2.695 7.8 7.8 0 0 1-2.593 1.792 8 8 0 0 1-3.192.646 8.05 8.05 0 0 1-3.203-.646c-1.003-.434-1.874-1.024-2.593-1.792-.73-.769-1.308-1.67-1.754-2.695-.447-1.024-.665-2.159-.665-3.406 0-1.147.218-2.227.665-3.229a9.3 9.3 0 0 1 1.754-2.649 7.6 7.6 0 0 1 2.593-1.793 8 8 0 0 1 3.203-.645c1.122 0 2.19.211 3.192.645a7.5 7.5 0 0 1 2.593 1.793c.73.768 1.308 1.67 1.754 2.694a8.1 8.1 0 0 1 .665 3.262c0 1.191-.218 2.304-.665 3.328"/></g><defs><clipPath id="clip0_10_2"><path fill="#fff" d="M23 89h210v78.139H23z"/></clipPath></defs></svg>
